img/icon/login.svg

<svg width="18" height="18" viewBox="0 0 18 18" fill="none" xmlns="http://www.w3.org/2000/svg">
<path fill-rule="evenodd" clip-rule="evenodd" d="M5 0C2.23858 0 0 2.23858 0 5V13C0 15.7614 2.23858 18 5 18H13C15.7614 18 18 15.7614 18 13V5C18 2.23858 15.7614 0 13 0H5ZM8.70711 5.29289C8.31658 4.90237 7.68342 4.90237 7.29289 5.29289C6.90237 5.68342 6.90237 6.31658 7.29289 6.70711L9.58579 9L7.29289 11.2929C6.90237 11.6834 6.90237 12.3166 7.29289 12.7071C7.68342 13.0976 8.31658 13.0976 8.70711 12.7071L11.7071 9.70711C12.0976 9.31658 12.0976 8.68342 11.7071 8.29289L8.70711 5.29289Z" fill="#4E6BB9"/>
</svg>

<svg width="18" height="18" fill="none" xmlns="http://www.w3.org/2000/svg"><path fill-rule="evenodd" clip-rule="evenodd" d="M5 0a5 5 0 0 0-5 5v8a5 5 0 0 0 5 5h8a5 5 0 0 0 5-5V5a5 5 0 0 0-5-5H5zm3.707 5.293a1 1 0 0 0-1.414 1.414L9.586 9l-2.293 2.293a1 1 0 1 0 1.414 1.414l3-3a1 1 0 0 0 0-1.414l-3-3z" fill="#4E6BB9"/></svg>
